X: 1
T: The Dunkeld Volunteers
C: Niel Gow
Z: 2012 John Chambers <jc:trillian.mit.edu>
M: C|
L: 1/8
K: D
FE |\
"D"D2d2 d2cd | "Em"E2e2 "A7"e2de | "D"f2d2 c2d2 | "E"edcB "A7"A4 |\
"D"D2d2 d2cd | "Em"E2e2 "A7"e2g2 | "D"f2d2 "A7"fedc | "D"d6 :|
|: g2 |\
"D"f2a2 a2ga | "Em"e2g2 "(A7)"g2fg | "D"f2d2 c2d2 | "E7"edcB "A7"A4 |\
"D"f2a2 a2ga | "Em"e2g2 "(A7)"g2a2 | "G"gfed "A7"fedc | "D"d6 :|
